X:128
T:Hiraeth
M:2/4
L:1/8
Q:160
C:Trad.
R:Slow air
K:D
A A3 | A A3- | A2 F>D | A A3- | A2 DE | F>F EF | E
D3- | D2 D>E | FF ED | BA (3Bcd | FF E>F | E D3 ||
